icons/strapi.svg

<?xml version="1.0" encoding="UTF-8"?>
<svg width="256px" height="252px" viewBox="0 0 256 252" version="1.1" xmlns="http://www.w3.org/2000/svg" xmlns:xlink="http://www.w3.org/1999/xlink" preserveAspectRatio="xMidYMid">
		<g fill="#8E75FF">
				<path d="M249.868148,1.42108547e-14 L81.6129672,1.42108547e-14 L81.6129672,84.3619834 L164.402564,84.3619834 C167.35201,84.3619834 169.744773,86.7547464 169.744773,89.7041929 L169.744773,171.351123 L255.210366,171.351123 L255.210366,5.3519758 C255.212951,3.93344238 254.651257,2.57212016 253.649118,1.56814827 C252.646978,0.56417638 251.286684,1.42108547e-14 249.868148,1.42108547e-14 Z"></path>
				<path d="M81.6032009,0 L81.6032009,84.3619834 L2.67132424,84.3619834 C1.58669272,84.3600599 0.610497706,83.7036101 0.199569944,82.6998335 C-0.211357818,81.6960568 0.0242672254,80.5435101 0.796179436,79.7815516 L81.6032009,0 L81.6032009,0 Z M174.295906,251.220572 C173.527464,251.975341 172.381399,252.195816 171.387771,251.780027 C170.394142,251.364238 169.746654,250.393242 169.744773,249.316128 L169.744773,171.351123 L255.210357,171.351123 L174.295906,251.210806 L174.295906,251.220572 L174.295906,251.220572 Z" opacity="0.405"></path>
				<path d="M81.6032009,84.3619834 L167.078552,84.3619834 C168.543508,84.3619834 169.744773,85.5534817 169.744773,87.028205 L169.744773,171.351123 L86.9551767,171.351123 C84.0047559,171.351123 81.6129672,168.959334 81.6129672,166.008913 L81.6129672,84.3619834 L81.6032009,84.3619834 L81.6032009,84.3619834 Z" fill-rule="nonzero" opacity="0.405"></path>
		</g>
</svg>

<svg xmlns="http://www.w3.org/2000/svg" viewBox="0 0 255.21 251.988">
  <g fill="#8e75ff">
    <path d="M249.868 0H81.613v84.362h82.79a5.343 5.343 0 0 1 5.342 5.342v81.647h85.465V5.352A5.34 5.34 0 0 0 249.868 0z"/>
    <path d="M81.603 0v84.362H2.671a2.676 2.676 0 0 1-1.875-4.58zm92.693 251.22a2.676 2.676 0 0 1-4.551-1.904v-77.965h85.465l-80.914 79.86v.01zM81.603 84.362h85.476a2.67 2.67 0 0 1 2.666 2.666v84.323h-82.79a5.342 5.342 0 0 1-5.342-5.342V84.362h-.01z" opacity=".405"/>
  </g>
</svg>
